; HEADER_BLOCK_START
; generated by OrcaSlicer 2.2.0 on 2025-02-03 at 17:56:43
; total layer number: 562
; filament_density: 1.24
; filament_diameter: 1.75
; max_z_height: 175.05
; HEADER_BLOCK_END

; THUMBNAIL_BLOCK_START

;
; THUMBNAIL_BLOCK_END

; THUMBNAIL_BLOCK_START

;
; THUMBNAIL_BLOCK_END

; external perimeters extrusion width = 0.42mm
; perimeters extrusion width = 0.45mm
; infill extrusion width = 0.45mm
; solid infill extrusion width = 0.45mm
; top infill extrusion width = 0.42mm
; first layer extrusion width = 0.50mm

; EXECUTABLE_BLOCK_START
EXCLUDE_OBJECT_DEFINE NAME=Desk_Valet.stl_id_0_copy_0 CENTER=110,110 POLYGON=[[60,62.5],[60.0024,62.3909],[60.0095,62.2821],[60.0214,62.1737],[60.038,62.0659],[60.0593,61.9589],[60.0852,61.853],[60.1157,61.7482],[60.1508,61.645],[60.1903,61.5433],[60.2342,61.4435],[60.2825,61.3456],[60.3349,61.25],[60.3915,61.1567],[60.4521,61.0661],[60.5166,60.9781],[60.5849,60.893],[60.6568,60.811],[60.7322,60.7322],[60.811,60.6568],[60.893,60.5849],[60.9781,60.5166],[61.0661,60.4521],[61.1567,60.3915],[61.25,60.3349],[61.3456,60.2825],[61.4435,60.2342],[61.5433,60.1903],[61.645,60.1508],[61.7482,60.1157],[61.853,60.0852],[61.9589,60.0593],[62.0659,60.038],[62.1737,60.0214],[62.2821,60.0095],[62.3909,60.0024],[62.5,60],[157.5,60],[157.609,60.0024],[157.718,60.0095],[157.826,60.0214],[157.934,60.038],[158.041,60.0593],[158.147,60.0852],[158.252,60.1157],[158.355,60.1508],[158.457,60.1903],[158.557,60.2342],[158.654,60.2825],[158.75,60.3349],[158.843,60.3915],[158.934,60.4521],[159.022,60.5166],[159.107,60.5849],[159.189,60.6568],[159.268,60.7322],[159.343,60.811],[159.415,60.893],[159.483,60.9781],[159.548,61.0661],[159.608,61.1567],[159.665,61.25],[159.718,61.3456],[159.766,61.4435],[159.81,61.5433],[159.849,61.645],[159.884,61.7482],[159.915,61.853],[159.941,61.9589],[159.962,62.0659],[159.979,62.1737],[159.99,62.2821],[159.998,62.3909],[160,62.5],[160,157.5],[159.998,157.609],[159.99,157.718],[159.979,157.826],[159.962,157.934],[159.941,158.041],[159.915,158.147],[159.884,158.252],[159.849,158.355],[159.81,158.457],[159.766,158.557],[159.718,158.654],[159.665,158.75],[159.608,158.843],[159.548,158.934],[159.483,159.022],[159.415,159.107],[159.343,159.189],[159.268,159.268],[159.189,159.343],[159.107,159.415],[159.022,159.483],[158.934,159.548],[158.843,159.608],[158.75,159.665],[158.654,159.718],[158.557,159.766],[158.457,159.81],[158.355,159.849],[158.252,159.884],[158.147,159.915],[158.041,159.941],[157.934,159.962],[157.826,159.979],[157.718,159.99],[157.609,159.998],[157.5,160],[62.5,160],[62.3909,159.998],[62.2821,159.99],[62.1737,159.979],[62.0659,159.962],[61.9589,159.941],[61.853,159.915],[61.7482,159.884],[61.645,159.849],[61.5433,159.81],[61.4435,159.766],[61.3456,159.718],[61.25,159.665],[61.1567,159.608],[61.0661,159.548],[60.9781,159.483],[60.893,159.415],[60.811,159.343],[60.7322,159.268],[60.6568,159.189],[60.5849,159.107],[60.5166,159.022],[60.4521,158.934],[60.3915,158.843],[60.3349,158.75],[60.2825,158.654],[60.2342,158.557],[60.1903,158.457],[60.1508,158.355],[60.1157,158.252],[60.0852,158.147],[60.0593,158.041],[60.038,157.934],[60.0214,157.826],[60.0095,157.718],[60.0024,157.609],[60,157.5],[60,62.5]]
M73 P0 R116
;TYPE:Custom
SET_GCODE_VARIABLE MACRO=PRINTER_PARAM VARIABLE=fan0_min VALUE=30 ;compensate for fan speed
SET_VELOCITY_LIMIT ACCEL_TO_DECEL=2500 ;revert accel_to_decel back to 2500
M220 S100 ;Reset Feedrate
M221 S100 ;Reset Flowrate

M140 S55 ;Set bed temp
G28 X Y ;Home XY axes
M190 S55 ;Wait for bed temp to stabilize
G28 Z ;Home Z axis & load bed mesh
BED_MESH_CALIBRATE PROBE_COUNT=5,5 ;Auto bed level

M104 S200 ;Set nozzle temp
G92 E0 ;Reset Extruder
G1 X-2.0 Y20 Z0.3 F5000.0 ;Move to start position
M109 S200 ;Wait for nozzle temp to stabilize
G1 Z0.2 ;Lower nozzle to printing height
G1 Y145.0 F1500.0 E15 ;Draw the first line
G1 X-1.7 F5000.0 ;Move to side a little
M73 P0 R115
G1 Y30 F1500.0 E15 ;Draw the second line
G92 E0 ;Reset Extruder
G90
G21
M83 ; use relative distances for extrusion
; filament start gcode
M106 S0
;LAYER_CHANGE
;Z:0.2
;HEIGHT:0.2
;BEFORE_LAYER_CHANGE
;0.2
G92 E0

M73 P0 R115
G1 E-.5 F1800
;_SET_FAN_SPEED_CHANGING_LAYER
SET_VELOCITY_LIMIT ACCEL=1000
SET_VELOCITY_LIMIT SQUARE_CORNER_VELOCITY=7
; printing object Desk Valet.stl id:0 copy 0
EXCLUDE_OBJECT_START NAME=Desk_Valet.stl_id_0_copy_0
G1 Z.4 F24000
G1 X60.898 Y158.148
G1 Z.4
G1 Z.2
G1 E.5 F1800
;TYPE:Inner wall
;WIDTH:0.499999
G1 F3000
G1 X60.848 Y158.026 E.0049
G1 X60.757 Y157.461 E.02132
G1 X60.757 Y62.641 E3.53167
G1 X60.802 Y62.124 E.01935
G1 X60.921 Y61.773 E.0138
G1 X61.177 Y61.371 E.01775
G1 X61.499 Y61.084 E.01606
G1 X61.977 Y60.842 E.01996
G1 X62.36 Y60.766 E.01453
G1 X63.003 Y60.757 E.02395
G1 X157.361 Y60.759 E3.51448
G1 X157.862 Y60.799 E.01871
G1 X158.401 Y61.014 E.02164
G1 X158.847 Y61.399 E.02193
G1 X159.004 Y61.634 E.01052
G1 X159.197 Y62.116 E.01934
G1 X159.243 Y62.642 E.01964
G1 X159.243 Y157.568 E3.53565
G1 X159.11 Y158.159 E.02257
G1 X158.835 Y158.606 E.01951
G1 X158.351 Y159.018 E.02371
G1 X158.026 Y159.152 E.01307
G1 X157.461 Y159.243 E.02132
G1 X62.432 Y159.243 E3.53948
G1 X61.841 Y159.11 E.02257
G1 X61.394 Y158.835 E.01951
G1 X60.982 Y158.351 E.02371
G1 X60.914 Y158.185 E.00668
G1 X60.479 Y158.329 F24000
;TYPE:Outer wall
G1 F3000
G1 X60.354 Y157.978 E.01388
G1 X60.3 Y157.486 E.01844
G1 X60.3 Y62.641 E3.5326
G1 X60.354 Y62.024 E.02307
G1 X60.506 Y61.574 E.01772
G1 X60.697 Y61.274 E.01323
G1 X60.968 Y60.934 E.01619
G1 X61.399 Y60.597 E.02039
G1 X61.839 Y60.403 E.01791
G1 X62.312 Y60.309 E.01796
G1 X63 Y60.3 E.02563
G1 X157.446 Y60.302 E3.51777
G1 X157.971 Y60.352 E.01963
G1 X158.395 Y60.507 E.01679
G1 X158.755 Y60.694 E.01512
G1 X159.189 Y61.092 E.02195
G1 X159.449 Y61.5 E.01799
G1 X159.646 Y62.022 E.0208
G1 X159.7 Y62.642 E.02317
G1 X159.7 Y157.358 E3.52784
G1 X159.646 Y157.978 E.02315
G1 X159.441 Y158.506 E.02112
G1 X159.185 Y158.899 E.01746
G1 X158.901 Y159.172 E.01467
G1 X158.453 Y159.477 E.02018
G1 X157.978 Y159.646 E.01879
G1 X157.486 Y159.7 E.01844
G1 X62.642 Y159.7 E3.53259
G1 X62.022 Y159.646 E.02315
G1 X61.494 Y159.441 E.02112
G1 X61.101 Y159.185 E.01746
G1 X60.828 Y158.901 E.01467
G1 X60.523 Y158.453 E.02018
G1 X60.492 Y158.367 E.00342
G1 E-.5 F1800
;WIPE_START
G1 F12000
G1 X60.354 Y157.978
G1 X60.3 Y157.486
G1 X60.3 Y156.394
;WIPE_END
G1 Z.4 F24000
G1 X157.213 Y60.897
G1 Z.4
G1 Z.2
G1 E.5 F1800
;TYPE:Bottom surface
;WIDTH:0.500032
G1 F6300
G1 X158.9 Y62.584 E.08887
G1 X158.9 Y63.23 E.02408
G1 X156.772 Y61.102 E.11209
G1 X156.126 Y61.102 E.02408
G1 X158.9 Y63.876 E.14614
G1 X158.9 Y64.523 E.02408
G1 X155.479 Y61.102 E.1802
G1 X154.833 Y61.102 E.02408
G1 X158.9 Y65.169 E.21425
G1 X158.9 Y65.816 E.02408
G1 X154.186 Y61.102 E.2483
G1 X153.54 Y61.102 E.02408
G1 X158.9 Y66.462 E.28236
G1 X158.9 Y67.109 E.02408
G1 X152.894 Y61.102 E.31641
G1 X152.247 Y61.102 E.02408
G1 X158.9 Y67.755 E.35047
G1 X158.9 Y68.402 E.02408
G1 X151.601 Y61.102 E.38452
G1 X150.954 Y61.102 E.02408
G1 X158.9 Y69.048 E.41858
G1 X158.9 Y69.695 E.02408
G1 X150.308 Y61.102 E.45263
G1 X149.661 Y61.102 E.02408
G1 X158.9 Y70.341 E.48669
G1 X158.9 Y70.987 E.02408
G1 X149.015 Y61.102 E.52074
G1 X148.368 Y61.102 E.02408
G1 X158.9 Y71.634 E.5548
G1 X158.9 Y72.28 E.02408
G1 X147.722 Y61.102 E.58885
G1 X147.075 Y61.102 E.02408
G1 X158.9 Y72.927 E.62291
G1 X158.9 Y73.573 E.02408
G1 X146.429 Y61.102 E.65696
G1 X145.782 Y61.102 E.02408
G1 X158.9 Y74.22 E.69102
G1 X158.9 Y74.866 E.02408
G1 X145.136 Y61.102 E.72507
G1 X144.489 Y61.102 E.02408
G1 X158.9 Y75.513 E.75912
G1 X158.9 Y76.159 E.02408
G1 X143.843 Y61.102 E.79318
G1 X143.196 Y61.102 E.02408
G1 X158.9 Y76.806 E.82723
G1 X158.9 Y77.452 E.02408
G1 X142.55 Y61.102 E.86129
G1 X141.904 Y61.102 E.02408
G1 X158.9 Y78.098 E.89534
G1 X158.9 Y78.745 E.02408
G1 X141.257 Y61.102 E.9294
G1 X140.611 Y61.102 E.02408
G1 X158.9 Y79.391 E.96345
G1 X158.9 Y80.038 E.02408
G1 X139.964 Y61.102 E.99751
G1 X139.318 Y61.102 E.02408
G1 X158.9 Y80.684 E1.03156
G1 X158.9 Y81.331 E.02408
G1 X138.671 Y61.102 E1.06562
G1 X138.025 Y61.102 E.02408
G1 X158.9 Y81.977 E1.09967
G1 X158.9 Y82.624 E.02408
G1 X137.378 Y61.102 E1.13373
G1 X136.732 Y61.102 E.02408
G1 X158.9 Y83.27 E1.16778
G1 X158.9 Y83.917 E.02408
G1 X136.085 Y61.102 E1.20183
G1 X135.439 Y61.102 E.02408
G1 X158.9 Y84.563 E1.23589
G1 X158.9 Y85.209 E.02408
G1 X134.792 Y61.102 E1.26994
G1 X134.146 Y61.102 E.02408
G1 X158.9 Y85.856 E1.304
G1 X158.9 Y86.502 E.02408
G1 X133.499 Y61.102 E1.33805
G1 X132.853 Y61.102 E.02408
G1 X158.9 Y87.149 E1.37211
G1 X158.9 Y87.795 E.02408
G1 X132.206 Y61.102 E1.40616
G1 X131.56 Y61.102 E.02408
G1 X158.9 Y88.442 E1.44022
G1 X158.9 Y89.088 E.02408
G1 X130.914 Y61.102 E1.47427
G1 X130.267 Y61.102 E.02408
G1 X158.9 Y89.735 E1.50833
G1 X158.9 Y90.381 E.02408
G1 X129.621 Y61.102 E1.54238
G1 X128.974 Y61.102 E.02408
G1 X158.9 Y91.028 E1.57644
G1 X158.9 Y91.674 E.02408
G1 X128.328 Y61.102 E1.61049
G1 X127.681 Y61.102 E.02408
G1 X158.9 Y92.32 E1.64454
G1 X158.9 Y92.967 E.02408
G1 X127.035 Y61.101 E1.6786
G1 X126.388 Y61.101 E.02408
G1 X158.9 Y93.613 E1.71265
G1 X158.9 Y94.26 E.02408
G1 X125.742 Y61.101 E1.74671
G1 X125.095 Y61.101 E.02408
G1 X158.9 Y94.906 E1.78076
G1 X158.9 Y95.553 E.02408
G1 X124.449 Y61.101 E1.81482
G1 X123.802 Y61.101 E.02408
G1 X158.9 Y96.199 E1.84887
G1 X158.9 Y96.846 E.02408
G1 X123.156 Y61.101 E1.88293
G1 X122.509 Y61.101 E.02408
G1 X158.9 Y97.492 E1.91698
G1 X158.9 Y98.139 E.02408
G1 X121.863 Y61.101 E1.95104
G1 X121.216 Y61.101 E.02408
G1 X158.9 Y98.785 E1.98509
G1 X158.9 Y99.431 E.02408
G1 X120.57 Y61.101 E2.01915
G1 X119.924 Y61.101 E.02408
G1 X158.9 Y100.078 E2.0532
G1 X158.9 Y100.724 E.02408
G1 X119.277 Y61.101 E2.08726
G1 X118.631 Y61.101 E.02408
G1 X158.9 Y101.371 E2.12131
G1 X158.9 Y102.017 E.02408
G1 X117.984 Y61.101 E2.15536
G1 X117.338 Y61.101 E.02408
G1 X158.9 Y102.664 E2.18942
G1 X158.9 Y103.31 E.02408
G1 X116.691 Y61.101 E2.22347
G1 X116.045 Y61.101 E.02408
G1 X158.9 Y103.957 E2.25753
G1 X158.9 Y104.603 E.02408
G1 X115.398 Y61.101 E2.29158
G1 X114.752 Y61.101 E.02408
G1 X158.9 Y105.25 E2.32564
G1 X158.9 Y105.896 E.02408
G1 X114.105 Y61.101 E2.35969
G1 X113.459 Y61.101 E.02408
G1 X158.9 Y106.542 E2.39375
G1 X158.9 Y107.189 E.02408
G1 X112.812 Y61.101 E2.4278
G1 X112.166 Y61.101 E.02408
G1 X158.9 Y107.835 E2.46186
G1 X158.9 Y108.482 E.02408
G1 X111.519 Y61.101 E2.49591
G1 X110.873 Y61.101 E.02408
G1 X158.9 Y109.128 E2.52997
G1 X158.9 Y109.775 E.02408
G1 X110.226 Y61.101 E2.56402
G1 X109.58 Y61.101 E.02408
G1 X158.9 Y110.421 E2.59807
G1 X158.9 Y111.068 E.02408
G1 X108.934 Y61.101 E2.63212
G1 X108.287 Y61.101 E.02408
G1 X158.9 Y111.714 E2.66617
G1 X158.9 Y112.361 E.02408
G1 X107.641 Y61.101 E2.70022
G1 X106.995 Y61.102 E.02408
M73 P0 R114
G1 X158.9 Y113.007 E2.73427
M73 P0 R114
G1 X158.9 Y113.653 E.02408
G1 X106.348 Y61.102 E2.76831
G1 X105.702 Y61.102 E.02408
G1 X158.9 Y114.3 E2.80236
G1 X158.9 Y114.946 E.02408
G1 X105.056 Y61.102 E2.83641
G1 X104.409 Y61.102 E.02408
G1 X158.9 Y115.593 E2.87046
G1 X158.9 Y116.239 E.02408
G1 X103.763 Y61.102 E2.90451
G1 X103.117 Y61.102 E.02408
M73 P1 R114
G1 X158.9 Y116.886 E2.93856
M73 P1 R114
G1 X158.9 Y117.532 E.02408
G1 X102.47 Y61.102 E2.97261
G1 X101.824 Y61.102 E.02408
G1 X158.9 Y118.179 E3.00666
G1 X158.9 Y118.825 E.02408
G1 X101.177 Y61.102 E3.04071
G1 X100.531 Y61.102 E.02408
G1 X158.9 Y119.472 E3.07475
G1 X158.9 Y120.118 E.02408
G1 X99.885 Y61.103 E3.1088
G1 X99.238 Y61.103 E.02408
G1 X158.9 Y120.764 E3.14285
G1 X158.9 Y121.411 E.02408
G1 X98.592 Y61.103 E3.1769
G1 X97.946 Y61.103 E.02408
G1 X158.9 Y122.057 E3.21095
G1 X158.9 Y122.704 E.02408
G1 X97.299 Y61.103 E3.245
G1 X96.653 Y61.103 E.02408
G1 X158.9 Y123.35 E3.27905
G1 X158.9 Y123.997 E.02408
G1 X96.007 Y61.103 E3.3131
G1 X95.36 Y61.103 E.02408
G1 X158.9 Y124.643 E3.34714
G1 X158.9 Y125.29 E.02408
G1 X94.714 Y61.103 E3.38119
G1 X94.067 Y61.103 E.02408
G1 X158.9 Y125.936 E3.41524
G1 X158.9 Y126.582 E.02408
G1 X93.421 Y61.104 E3.44929
G1 X92.775 Y61.104 E.02408
G1 X158.9 Y127.229 E3.48334
G1 X158.9 Y127.875 E.02408
G1 X92.128 Y61.104 E3.51739
G1 X91.482 Y61.104 E.02408
G1 X158.9 Y128.522 E3.55144
G1 X158.9 Y129.168 E.02408
G1 X90.836 Y61.104 E3.58549
G1 X90.189 Y61.104 E.02408
G1 X158.9 Y129.815 E3.61953
G1 X158.9 Y130.461 E.02408
G1 X89.543 Y61.104 E3.65358
G1 X88.897 Y61.104 E.02408
G1 X158.9 Y131.108 E3.68763
G1 X158.9 Y131.754 E.02408
G1 X88.25 Y61.104 E3.72168
G1 X87.604 Y61.104 E.02408
G1 X158.9 Y132.401 E3.75573
G1 X158.9 Y133.047 E.02408
G1 X86.958 Y61.104 E3.78978
G1 X86.311 Y61.105 E.02408
G1 X158.9 Y133.693 E3.82383
G1 X158.9 Y134.34 E.02408
G1 X85.665 Y61.105 E3.85788
G1 X85.018 Y61.105 E.02408
G1 X158.9 Y134.986 E3.89192
G1 X158.9 Y135.633 E.02408
G1 X84.372 Y61.105 E3.92597
G1 X83.726 Y61.105 E.02408
G1 X158.9 Y136.279 E3.96002
G1 X158.9 Y136.926 E.02408
G1 X83.079 Y61.105 E3.99407
G1 X82.433 Y61.105 E.02408
G1 X158.9 Y137.572 E4.02812
G1 X158.9 Y138.219 E.02408
G1 X81.787 Y61.105 E4.06217
G1 X81.14 Y61.105 E.02408
G1 X158.9 Y138.865 E4.09622
G1 X158.9 Y139.512 E.02408
G1 X80.494 Y61.105 E4.13027
G1 X79.848 Y61.106 E.02408
G1 X158.9 Y140.158 E4.16431
G1 X158.9 Y140.804 E.02408
G1 X79.201 Y61.106 E4.19836
G1 X78.555 Y61.106 E.02408
G1 X158.9 Y141.451 E4.23241
G1 X158.9 Y142.097 E.02408
G1 X77.909 Y61.106 E4.26646
G1 X77.262 Y61.106 E.02408
G1 X158.9 Y142.744 E4.30051
G1 X158.9 Y143.39 E.02408
G1 X76.616 Y61.106 E4.33456
G1 X75.969 Y61.106 E.02408
G1 X158.9 Y144.037 E4.36861
G1 X158.9 Y144.683 E.02408
G1 X75.323 Y61.106 E4.40266
G1 X74.677 Y61.106 E.02408
G1 X158.9 Y145.33 E4.43671
G1 X158.9 Y145.976 E.02408
G1 X74.03 Y61.106 E4.47075
G1 X73.384 Y61.106 E.02408
G1 X158.9 Y146.623 E4.5048
G1 X158.9 Y147.269 E.02408
G1 X72.738 Y61.107 E4.53885
G1 X72.091 Y61.107 E.02408
G1 X158.9 Y147.915 E4.5729
G1 X158.9 Y148.562 E.02408
G1 X71.445 Y61.107 E4.60695
G1 X70.799 Y61.107 E.02408
M73 P1 R113
G1 X158.9 Y149.208 E4.641
M73 P1 R113
G1 X158.9 Y149.855 E.02408
G1 X70.152 Y61.107 E4.67505
G1 X69.506 Y61.107 E.02408
G1 X158.9 Y150.501 E4.7091
G1 X158.9 Y151.148 E.02408
G1 X68.859 Y61.107 E4.74314
G1 X68.213 Y61.107 E.02408
G1 X158.9 Y151.794 E4.77719
G1 X158.9 Y152.441 E.02408
G1 X67.567 Y61.107 E4.81124
G1 X66.92 Y61.107 E.02408
G1 X158.9 Y153.087 E4.84529
G1 X158.9 Y153.734 E.02408
G1 X66.274 Y61.107 E4.87934
G1 X65.628 Y61.108 E.02408
G1 X158.9 Y154.38 E4.91339
G1 X158.9 Y155.026 E.02408
G1 X64.981 Y61.108 E4.94744
G1 X64.335 Y61.108 E.02408
G1 X158.9 Y155.673 E4.98149
G1 X158.9 Y156.319 E.02408
M73 P2 R113
G1 X63.689 Y61.108 E5.01553
M73 P2 R113
G1 X63.042 Y61.108 E.02408
G1 X158.9 Y156.966 E5.04958
G1 X158.9 Y157.442 E.01775
G1 X158.883 Y157.596 E.00574
G1 X62.396 Y61.108 E5.08275
G1 X62.081 Y61.171 E.01196
G1 X61.894 Y61.253 E.0076
G1 X158.748 Y158.106 E5.10204
G1 X158.637 Y158.309 E.00861
G1 X158.502 Y158.47 E.00782
G1 X158.481 Y158.486 E.00098
G1 X61.514 Y61.519 E5.108
G1 X61.446 Y61.587 E.00357
G1 X61.248 Y61.899 E.01379
G1 X158.105 Y158.757 E5.10225
G1 X157.813 Y158.86 E.01155
G1 X157.586 Y158.884 E.00848
G1 X61.116 Y62.414 E5.08187
G1 X61.1 Y62.558 E.00539
G1 X61.1 Y63.044 E.01813
G1 X156.956 Y158.9 E5.04947
G1 X156.309 Y158.9 E.02408
G1 X61.1 Y63.691 E5.01542
G1 X61.1 Y64.337 E.02408
G1 X155.663 Y158.9 E4.98137
G1 X155.016 Y158.9 E.02408
G1 X61.1 Y64.984 E4.94731
G1 X61.1 Y65.63 E.02408
G1 X154.37 Y158.9 E4.91326
G1 X153.723 Y158.9 E.02408
G1 X61.1 Y66.277 E4.8792
G1 X61.1 Y66.923 E.02408
G1 X153.077 Y158.9 E4.84515
G1 X152.43 Y158.9 E.02408
G1 X61.1 Y67.57 E4.8111
G1 X61.1 Y68.216 E.02408
G1 X151.784 Y158.9 E4.77704
G1 X151.138 Y158.9 E.02408
G1 X61.1 Y68.862 E4.74299
G1 X61.1 Y69.509 E.02408
G1 X150.491 Y158.9 E4.70894
G1 X149.845 Y158.9 E.02408
G1 X61.1 Y70.155 E4.67488
G1 X61.1 Y70.802 E.02408
G1 X149.198 Y158.9 E4.64083
G1 X148.552 Y158.9 E.02408
G1 X61.1 Y71.448 E4.60677
G1 X61.1 Y72.095 E.02408
G1 X147.905 Y158.9 E4.57272
G1 X147.259 Y158.9 E.02408
G1 X61.1 Y72.741 E4.53867
G1 X61.1 Y73.388 E.02408
G1 X146.612 Y158.9 E4.50461
G1 X145.966 Y158.9 E.02408
G1 X61.1 Y74.034 E4.47056
G1 X61.1 Y74.681 E.02408
